apps/aragon-fundraising/app/src/assets/TransferArrows.svg

<svg width="24" height="18" viewBox="0 0 24 18" fill="none" xmlns="http://www.w3.org/2000/svg">
<path d="M23.3795 5.29468H9.26047C8.91781 5.29468 8.64001 5.57248 8.64001 5.91514C8.64001 6.25783 8.91781 6.5356 9.26047 6.5356H23.3795C23.7222 6.5356 24 6.25783 24 5.91514C24 5.57248 23.7222 5.29468 23.3795 5.29468Z" fill="#99A0A2"/>
<path d="M23.8183 5.47635L18.5237 0.18171C18.2813 -0.06057 17.8885 -0.06057 17.6462 0.18171C17.4039 0.42402 17.4039 0.81687 17.6462 1.05918L22.5021 5.9151L17.6462 10.771C17.4039 11.0133 17.4039 11.4061 17.6462 11.6485C17.7673 11.7696 17.9261 11.8302 18.0849 11.8302C18.2437 11.8302 18.4025 11.7696 18.5237 11.6485L23.8183 6.35382C24.0606 6.11151 24.0606 5.71866 23.8183 5.47635Z" fill="#99A0A2"/>
<path d="M0.620452 11.8157L14.7395 11.8157C15.0822 11.8157 15.36 11.5379 15.36 11.1952C15.36 10.8525 15.0822 10.5748 14.7395 10.5748L0.620452 10.5748C0.277762 10.5748 -7.62939e-06 10.8525 -7.62939e-06 11.1952C-7.62939e-06 11.5379 0.277762 11.8157 0.620452 11.8157Z" fill="#99A0A2"/>
<path d="M0.181705 11.634L5.47634 16.9286C5.71865 17.1709 6.1115 17.1709 6.35381 16.9286C6.59609 16.6863 6.59609 16.2935 6.35381 16.0512L1.49789 11.1953L6.35381 6.33937C6.59609 6.09706 6.59609 5.70421 6.35381 5.4619C6.23267 5.34073 6.07385 5.28016 5.91506 5.28016C5.75627 5.28016 5.59745 5.34073 5.47631 5.4619L0.181675 10.7565C-0.060605 10.9988 -0.0606046 11.3917 0.181705 11.634Z" fill="#99A0A2"/>
</svg>

<svg width="24" height="18" fill="none" xmlns="http://www.w3.org/2000/svg"><path d="M23.38 5.295H9.26a.62.62 0 0 0 0 1.24h14.12a.62.62 0 1 0 0-1.24z" fill="#99A0A2"/><path d="M23.818 5.476L18.524.182a.62.62 0 0 0-.878.877l4.856 4.856-4.856 4.856a.62.62 0 0 0 .878.877l5.294-5.294a.62.62 0 0 0 0-.878zM.62 11.816h14.12a.62.62 0 1 0 0-1.241H.62a.62.62 0 1 0 0 1.24z" fill="#99A0A2"/><path d="M.182 11.634l5.294 5.295a.62.62 0 0 0 .878-.878l-4.856-4.856L6.354 6.34a.62.62 0 0 0-.878-.877L.182 10.757a.62.62 0 0 0 0 .877z" fill="#99A0A2"/></svg>
